visuals/blocks/b0136.svg

<svg width="29.999999999999996" height="29.999999999999996" xmlns="http://www.w3.org/2000/svg" preserveAspectRatio="none" version="1.1">

 <g>
  <title>Layer 1</title>
  <path id="svg_1" d="m0,0l0,30l30,0l0,-30l-30,0z" fill="#4c154c"/>
  <path id="svg_2" d="m0,30l5,0l-5,-5l0,5m0,-15l0,5l10,10l5,0l-15,-15m0,-10l0,5l20,20l5,0l-25,-25m5,-5l-5,0l30,30l0,-5l-25,-25m25,20l0,-5l-15,-15l-5,0l20,20m0,-15l-5,-5l-5,0l10,10l0,-5z" fill="#701f6a"/>
 </g>
</svg>

<svg xmlns="http://www.w3.org/2000/svg" version="1.1" xmlns:xlink="http://www.w3.org/1999/xlink" preserveAspectRatio="none" x="0px" y="0px" width="30px" height="30px" viewBox="0 0 30 30">
<path fill="#4C154C" stroke="none" d="
M 0 0
L 0 30 30 30 30 0 Z"/>
<path fill="#701F6A" stroke="none" d="
M 0 30
L 5 30 0 25 0 30
M 0 15
L 0 20 10 30 15 30 0 15
M 0 5
L 0 10 20 30 25 30 0 5
M 5 0
L 0 0 30 30 30 25 5 0
M 30 20
L 30 15 15 0 10 0 30 20
M 30 5
L 25 0 20 0 30 10 30 5 Z"/>
</svg>
